assets/images/moving5.svg

<svg width="64" height="64" viewBox="0 0 64 64" fill="none" xmlns="http://www.w3.org/2000/svg">
<path d="M11.058 32.86H31.3401H35.3966L38.4389 34.3812L39.453 38.4376L50.1012 26.7754H51.6223L53.6505 27.2824L55.1717 28.2966L55.6788 31.8459L34.8895 55.6775H10.5509L8.52268 54.1563L8.01562 51.6211V36.9165L9.02973 34.8883L11.058 32.86Z" fill="white"/>
<path d="M14.6064 26.7752V12.5777V9.53532L16.6347 8.01416H34.8886C35.2943 8.01416 35.7337 8.69023 35.9027 9.02827L36.9168 11.0565V26.7752H14.6064Z" fill="white"/>
<path d="M55.2937 27.1125C54.2583 26.1729 52.9125 25.6812 51.525 25.7563C50.1292 25.8208 48.8417 26.425 47.9021 27.4583L40.1271 36.0063C39.4729 33.6979 37.3458 32 34.8312 32H12.2083C9.3375 32 7 34.3354 7 37.2083V51.7917C7 54.6646 9.3375 57 12.2083 57H35.5917L55.6729 34.4646C57.5708 32.3333 57.4 29.0375 55.2917 27.1146L55.2937 27.1125ZM54.1187 33.075L34.6604 54.9146H12.2083C10.4854 54.9146 9.08333 53.5125 9.08333 51.7896V37.2062C9.08333 35.4833 10.4854 34.0812 12.2083 34.0812H34.8292C36.7146 34.0812 38.25 35.6167 38.25 37.5042C38.25 39.1958 36.9875 40.6521 35.325 40.8875L23.5312 42.4229L23.8 44.4896L35.6062 42.9521C37.7354 42.6479 39.45 41.1229 40.0771 39.1542L49.4417 28.8625C50.0083 28.2396 50.7833 27.875 51.6229 27.8375C52.4521 27.7937 53.2687 28.0896 53.8896 28.6542C55.1583 29.8125 55.2604 31.7958 54.1167 33.0771L54.1187 33.075ZM21.5833 13.25H29.9167V15.3333H21.5833V13.25ZM38.25 11.1667C38.25 8.86875 36.3812 7 34.0833 7H17.4167C15.1187 7 13.25 8.86875 13.25 11.1667V27.8333H38.25V11.1667ZM36.1667 25.75H15.3333V11.1667C15.3333 10.0167 16.2687 9.08333 17.4167 9.08333H34.0833C35.2312 9.08333 36.1667 10.0167 36.1667 11.1667V25.75Z" fill="#022F45"/>
<path fill-rule="evenodd" clip-rule="evenodd" d="M55.6321 27.455C55.6151 27.4364 55.5979 27.4178 55.5806 27.3994C55.5058 27.3197 55.4281 27.242 55.3475 27.1662C55.3291 27.149 55.3105 27.1318 55.2918 27.1147C55.2917 27.1147 55.2918 27.1147 55.2918 27.1147L55.2937 27.1125C55.2937 27.1125 55.2938 27.1125 55.2937 27.1125C55.2802 27.1002 55.2665 27.0879 55.2528 27.0757C55.1408 26.9761 55.0252 26.8817 54.9065 26.7926C53.9335 26.0627 52.7453 25.6903 51.525 25.7563C50.1292 25.8208 48.8417 26.425 47.9021 27.4583L40.1271 36.0063C40.0749 35.822 40.0133 35.6416 39.9428 35.4657C39.1309 33.4377 37.1451 32 34.8312 32H12.2083C9.3375 32 7 34.3354 7 37.2083V51.7917C7 54.6646 9.3375 57 12.2083 57H35.5917L55.6729 34.4646C57.463 32.4544 57.4127 29.4081 55.6321 27.455ZM40.3132 35.0586L47.5321 27.122C48.5609 25.9906 49.9725 25.3281 51.4999 25.2569C53.0239 25.175 54.4987 25.7159 55.6297 26.7422L56.0184 27.0949L55.9986 27.1148C57.9532 29.2549 58.0092 32.5929 56.0463 34.7971L35.8158 57.5H12.2083C9.06149 57.5 6.5 54.9409 6.5 51.7917V37.2083C6.5 34.0591 9.06149 31.5 12.2083 31.5H34.8312C37.2716 31.5 39.3752 32.9646 40.3132 35.0586ZM35.325 40.8875C36.9875 40.6521 38.25 39.1958 38.25 37.5042C38.25 35.6167 36.7146 34.0812 34.8292 34.0812H12.2083C10.4854 34.0812 9.08333 35.4833 9.08333 37.2062V51.7896C9.08333 53.5125 10.4854 54.9146 12.2083 54.9146H34.6604L54.1187 33.075C54.122 33.0714 54.1251 33.0676 54.1283 33.064C55.2597 31.7824 55.154 29.8086 53.8896 28.6542C53.2687 28.0896 52.4521 27.7937 51.6229 27.8375C50.7833 27.875 50.0083 28.2396 49.4417 28.8625L40.0771 39.1542C39.45 41.1229 37.7354 42.6479 35.6062 42.9521L23.8 44.4896L23.5321 42.4228L35.325 40.8875ZM40.5187 39.4118C39.8084 41.5056 37.9641 43.1203 35.677 43.4471L35.6708 43.4479L23.3687 45.05L22.971 41.9916L35.2549 40.3924C35.2558 40.3923 35.2567 40.3922 35.2576 40.3921C36.6706 40.1906 37.75 38.9474 37.75 37.5042C37.75 35.8926 36.4382 34.5812 34.8292 34.5812H12.2083C10.7616 34.5812 9.58333 35.7595 9.58333 37.2062V51.7896C9.58333 53.2364 10.7616 54.4146 12.2083 54.4146H34.4362L53.7438 32.7442C54.7047 31.6678 54.6191 29.9979 53.5531 29.024C53.0291 28.5475 52.3424 28.3002 51.6493 28.3368L51.6452 28.337C50.9391 28.3685 50.289 28.6741 49.8115 29.199L40.5187 39.4118ZM21.0833 12.75H30.4167V15.8333H21.0833V12.75ZM12.75 28.3333V11.1667C12.75 8.59261 14.8426 6.5 17.4167 6.5H34.0833C36.6574 6.5 38.75 8.59261 38.75 11.1667V28.3333H12.75ZM38.25 11.1667C38.25 8.86875 36.3812 7 34.0833 7H17.4167C15.1187 7 13.25 8.86875 13.25 11.1667V27.8333H38.25V11.1667ZM15.8333 25.25H35.6667V11.1667C35.6667 10.2931 34.9554 9.58333 34.0833 9.58333H17.4167C16.5446 9.58333 15.8333 10.2931 15.8333 11.1667V25.25ZM21.5833 13.25V15.3333H29.9167V13.25H21.5833ZM36.1667 25.75V11.1667C36.1667 10.0167 35.2312 9.08333 34.0833 9.08333H17.4167C16.2687 9.08333 15.3333 10.0167 15.3333 11.1667V25.75H36.1667Z" fill="#022F45"/>
</svg>

<svg width="64" height="64" fill="none" xmlns="http://www.w3.org/2000/svg"><path d="M11.058 32.86h24.339l3.042 1.521 1.014 4.057 10.648-11.663h1.521l2.029.507 1.52 1.015.508 3.549-20.79 23.832H10.551l-2.028-1.522-.507-2.535V36.916l1.014-2.028 2.028-2.028ZM14.606 26.775V9.535l2.029-1.52h18.254c.405 0 .845.675 1.014 1.013l1.014 2.028v15.72h-22.31Z" fill="#fff"/><path d="M55.294 27.113a5.18 5.18 0 0 0-3.769-1.357 5.188 5.188 0 0 0-3.623 1.702l-7.775 8.548A5.515 5.515 0 0 0 34.831 32H12.208A5.214 5.214 0 0 0 7 37.208v14.584A5.214 5.214 0 0 0 12.208 57h23.384l20.08-22.535c1.899-2.132 1.728-5.428-.38-7.35l.002-.002Zm-1.175 5.962L34.66 54.915H12.208a3.129 3.129 0 0 1-3.125-3.125V37.206a3.129 3.129 0 0 1 3.125-3.125H34.83a3.426 3.426 0 0 1 3.421 3.423c0 1.692-1.263 3.148-2.925 3.384l-11.794 1.535.269 2.067 11.806-1.538c2.13-.304 3.844-1.83 4.471-3.798l9.365-10.292a3.118 3.118 0 0 1 2.18-1.024 3.13 3.13 0 0 1 2.268.816 3.16 3.16 0 0 1 .227 4.423l.002-.002ZM21.583 13.25h8.334v2.083h-8.334V13.25Zm16.667-2.083A4.17 4.17 0 0 0 34.083 7H17.417a4.17 4.17 0 0 0-4.167 4.167v16.666h25V11.167ZM36.167 25.75H15.333V11.167c0-1.15.936-2.084 2.084-2.084h16.666c1.148 0 2.084.934 2.084 2.084V25.75Z" fill="#022F45"/><path fill-rule="evenodd" clip-rule="evenodd" d="M55.632 27.455a5.378 5.378 0 0 0-.34-.34l.002-.002a4.848 4.848 0 0 0-.387-.32 5.16 5.16 0 0 0-3.382-1.037 5.188 5.188 0 0 0-3.623 1.702l-7.775 8.548A5.514 5.514 0 0 0 34.831 32H12.208A5.214 5.214 0 0 0 7 37.208v14.584A5.214 5.214 0 0 0 12.208 57h23.384l20.08-22.535c1.791-2.01 1.74-5.057-.04-7.01Zm-15.319 7.604 7.22-7.937a5.689 5.689 0 0 1 3.967-1.865 5.68 5.68 0 0 1 4.13 1.485l.388.353-.02.02c1.955 2.14 2.011 5.478.048 7.682L35.816 57.5H12.208A5.714 5.714 0 0 1 6.5 51.792V37.208a5.714 5.714 0 0 1 5.708-5.708h22.623a6.013 6.013 0 0 1 5.482 3.559Zm-4.988 5.829c1.662-.236 2.925-1.692 2.925-3.384a3.426 3.426 0 0 0-3.42-3.423H12.207a3.129 3.129 0 0 0-3.125 3.125V51.79a3.129 3.129 0 0 0 3.125 3.125H34.66l19.459-21.84.01-.011a3.16 3.16 0 0 0-.24-4.41 3.13 3.13 0 0 0-2.266-.817 3.118 3.118 0 0 0-2.181 1.026l-9.365 10.291c-.627 1.969-2.342 3.494-4.47 3.798L23.8 44.49l-.268-2.067 11.793-1.535Zm5.194-1.476c-.71 2.094-2.555 3.708-4.842 4.035h-.006L23.369 45.05l-.398-3.058 12.284-1.6h.003c1.413-.201 2.492-1.445 2.492-2.888a2.926 2.926 0 0 0-2.92-2.923H12.207a2.629 2.629 0 0 0-2.625 2.625V51.79a2.629 2.629 0 0 0 2.625 2.625h22.228l19.308-21.67a2.66 2.66 0 0 0-.19-3.721 2.63 2.63 0 0 0-1.905-.687h-.004a2.619 2.619 0 0 0-1.834.862L40.52 39.412ZM21.083 12.75h9.334v3.083h-9.334V12.75ZM12.75 28.333V11.167A4.67 4.67 0 0 1 17.417 6.5h16.666a4.67 4.67 0 0 1 4.667 4.667v17.166h-26Zm25.5-17.166A4.17 4.17 0 0 0 34.083 7H17.417a4.17 4.17 0 0 0-4.167 4.167v16.666h25V11.167ZM15.833 25.25h19.834V11.167c0-.874-.712-1.584-1.584-1.584H17.417c-.872 0-1.584.71-1.584 1.584V25.25Zm5.75-12v2.083h8.334V13.25h-8.334Zm14.584 12.5V11.167c0-1.15-.936-2.084-2.084-2.084H17.417a2.085 2.085 0 0 0-2.084 2.084V25.75h20.834Z" fill="#022F45"/></svg>
